flaticon/interaction/server-4.svg

<svg xmlns="http://www.w3.org/2000/svg" width="32" height="32" viewBox="0 0 24 24">
    <path d="M 23.875 22.652344 L 19.140625 14.53125 C 18.976562 14.253906 18.6875 14.085938 18.367188 14.085938 C 18.046875 14.085938 17.757812 14.253906 17.59375 14.53125 L 12.859375 22.652344 C 12.695312 22.929688 12.691406 23.265625 12.855469 23.546875 C 13.015625 23.828125 13.304688 23.996094 13.628906 23.996094 L 23.101562 23.996094 C 23.429688 23.996094 23.71875 23.828125 23.878906 23.546875 C 24.042969 23.265625 24.039062 22.929688 23.875 22.652344 Z M 23.1875 23.148438 C 23.171875 23.171875 23.148438 23.195312 23.101562 23.195312 L 13.628906 23.195312 C 13.585938 23.195312 13.5625 23.171875 13.546875 23.148438 C 13.535156 23.128906 13.527344 23.09375 13.550781 23.054688 L 18.285156 14.933594 C 18.308594 14.894531 18.34375 14.886719 18.367188 14.886719 C 18.390625 14.886719 18.425781 14.894531 18.449219 14.933594 L 23.1875 23.054688 C 23.207031 23.09375 23.199219 23.128906 23.1875 23.148438 Z M 23.1875 23.148438"/>
    <path d="M18.402344 16.800781C18.179688 16.800781 18 16.976562 18 17.199219L18 20.398438C18 20.617188 18.179688 20.796875 18.402344 20.796875 18.621094 20.796875 18.800781 20.617188 18.800781 20.398438L18.800781 17.199219C18.800781 16.976562 18.621094 16.800781 18.402344 16.800781zM18.117188 21.710938C18.042969 21.789062 18 21.890625 18 22 18 22.105469 18.046875 22.207031 18.117188 22.28125 18.195312 22.355469 18.296875 22.398438 18.402344 22.398438 18.503906 22.398438 18.609375 22.355469 18.683594 22.28125 18.757812 22.203125 18.800781 22.101562 18.800781 22 18.800781 21.890625 18.757812 21.792969 18.683594 21.710938 18.535156 21.5625 18.265625 21.566406 18.117188 21.710938zM4.199219 2.402344C3.207031 2.402344 2.398438 3.210938 2.398438 4.203125 2.398438 5.195312 3.207031 6 4.199219 6 5.191406 6 5.996094 5.195312 5.996094 4.203125 5.996094 3.210938 5.191406 2.402344 4.199219 2.402344zM4.199219 5.203125C3.648438 5.203125 3.199219 4.753906 3.199219 4.203125 3.199219 3.652344 3.648438 3.203125 4.199219 3.203125 4.75 3.203125 5.199219 3.652344 5.199219 4.203125 5.199219 4.753906 4.75 5.203125 4.199219 5.203125zM20.394531 3.601562C20.394531 3.824219 20.214844 4.003906 19.992188 4.003906 19.773438 4.003906 19.59375 3.824219 19.59375 3.601562 19.59375 3.382812 19.773438 3.203125 19.992188 3.203125 20.214844 3.203125 20.394531 3.382812 20.394531 3.601562zM18.792969 3.601562C18.792969 3.824219 18.613281 4.003906 18.394531 4.003906 18.171875 4.003906 17.992188 3.824219 17.992188 3.601562 17.992188 3.382812 18.171875 3.203125 18.394531 3.203125 18.613281 3.203125 18.792969 3.382812 18.792969 3.601562zM21.191406 4.800781C21.191406 5.023438 21.011719 5.203125 20.792969 5.203125 20.570312 5.203125 20.394531 5.023438 20.394531 4.800781 20.394531 4.582031 20.570312 4.402344 20.792969 4.402344 21.011719 4.402344 21.191406 4.582031 21.191406 4.800781zM19.59375 4.800781C19.59375 5.023438 19.414062 5.203125 19.191406 5.203125 18.972656 5.203125 18.792969 5.023438 18.792969 4.800781 18.792969 4.582031 18.972656 4.402344 19.191406 4.402344 19.414062 4.402344 19.59375 4.582031 19.59375 4.800781zM17.195312 3.601562C17.195312 3.824219 17.015625 4.003906 16.792969 4.003906 16.574219 4.003906 16.394531 3.824219 16.394531 3.601562 16.394531 3.382812 16.574219 3.203125 16.792969 3.203125 17.015625 3.203125 17.195312 3.382812 17.195312 3.601562zM17.992188 4.800781C17.992188 5.023438 17.816406 5.203125 17.59375 5.203125 17.371094 5.203125 17.195312 5.023438 17.195312 4.800781 17.195312 4.582031 17.371094 4.402344 17.59375 4.402344 17.816406 4.402344 17.992188 4.582031 17.992188 4.800781zM15.59375 3.601562C15.59375 3.824219 15.414062 4.003906 15.195312 4.003906 14.972656 4.003906 14.792969 3.824219 14.792969 3.601562 14.792969 3.382812 14.972656 3.203125 15.195312 3.203125 15.414062 3.203125 15.59375 3.382812 15.59375 3.601562zM16.394531 4.800781C16.394531 5.023438 16.214844 5.203125 15.996094 5.203125 15.773438 5.203125 15.59375 5.023438 15.59375 4.800781 15.59375 4.582031 15.773438 4.402344 15.996094 4.402344 16.214844 4.402344 16.394531 4.582031 16.394531 4.800781zM13.996094 3.601562C13.996094 3.824219 13.816406 4.003906 13.59375 4.003906 13.375 4.003906 13.195312 3.824219 13.195312 3.601562 13.195312 3.382812 13.375 3.203125 13.59375 3.203125 13.816406 3.203125 13.996094 3.382812 13.996094 3.601562zM14.792969 4.800781C14.792969 5.023438 14.617188 5.203125 14.394531 5.203125 14.175781 5.203125 13.996094 5.023438 13.996094 4.800781 13.996094 4.582031 14.175781 4.402344 14.394531 4.402344 14.617188 4.402344 14.792969 4.582031 14.792969 4.800781zM2.398438 11.800781C2.398438 12.792969 3.207031 13.597656 4.199219 13.597656 5.191406 13.597656 5.996094 12.792969 5.996094 11.800781 5.996094 10.808594 5.191406 10 4.199219 10 3.207031 10 2.398438 10.808594 2.398438 11.800781zM5.199219 11.800781C5.199219 12.351562 4.75 12.800781 4.199219 12.800781 3.648438 12.800781 3.199219 12.351562 3.199219 11.800781 3.199219 11.25 3.648438 10.800781 4.199219 10.800781 4.75 10.800781 5.199219 11.25 5.199219 11.800781zM20.394531 11.199219C20.394531 11.421875 20.214844 11.597656 19.992188 11.597656 19.773438 11.597656 19.59375 11.421875 19.59375 11.199219 19.59375 10.980469 19.773438 10.800781 19.992188 10.800781 20.214844 10.800781 20.394531 10.980469 20.394531 11.199219zM18.792969 11.199219C18.792969 11.421875 18.613281 11.597656 18.394531 11.597656 18.171875 11.597656 17.992188 11.421875 17.992188 11.199219 17.992188 10.980469 18.171875 10.800781 18.394531 10.800781 18.613281 10.800781 18.792969 10.980469 18.792969 11.199219zM21.191406 12.398438C21.191406 12.621094 21.011719 12.800781 20.792969 12.800781 20.570312 12.800781 20.394531 12.621094 20.394531 12.398438 20.394531 12.179688 20.570312 12 20.792969 12 21.011719 12 21.191406 12.179688 21.191406 12.398438zM19.59375 12.398438C19.59375 12.621094 19.414062 12.800781 19.191406 12.800781 18.972656 12.800781 18.792969 12.621094 18.792969 12.398438 18.792969 12.179688 18.972656 12 19.191406 12 19.414062 12 19.59375 12.179688 19.59375 12.398438zM17.195312 11.199219C17.195312 11.421875 17.015625 11.597656 16.792969 11.597656 16.574219 11.597656 16.394531 11.421875 16.394531 11.199219 16.394531 10.980469 16.574219 10.800781 16.792969 10.800781 17.015625 10.800781 17.195312 10.980469 17.195312 11.199219zM17.992188 12.398438C17.992188 12.621094 17.816406 12.800781 17.59375 12.800781 17.371094 12.800781 17.195312 12.621094 17.195312 12.398438 17.195312 12.179688 17.371094 12 17.59375 12 17.816406 12 17.992188 12.179688 17.992188 12.398438zM15.59375 11.199219C15.59375 11.421875 15.414062 11.597656 15.195312 11.597656 14.972656 11.597656 14.792969 11.421875 14.792969 11.199219 14.792969 10.980469 14.972656 10.800781 15.195312 10.800781 15.414062 10.800781 15.59375 10.980469 15.59375 11.199219zM16.394531 12.398438C16.394531 12.621094 16.214844 12.800781 15.996094 12.800781 15.773438 12.800781 15.59375 12.621094 15.59375 12.398438 15.59375 12.179688 15.773438 12 15.996094 12 16.214844 12 16.394531 12.179688 16.394531 12.398438zM13.996094 11.199219C13.996094 11.421875 13.816406 11.597656 13.59375 11.597656 13.375 11.597656 13.195312 11.421875 13.195312 11.199219 13.195312 10.980469 13.375 10.800781 13.59375 10.800781 13.816406 10.800781 13.996094 10.980469 13.996094 11.199219zM14.792969 12.398438C14.792969 12.621094 14.617188 12.800781 14.394531 12.800781 14.175781 12.800781 13.996094 12.621094 13.996094 12.398438 13.996094 12.179688 14.175781 12 14.394531 12 14.617188 12 14.792969 12.179688 14.792969 12.398438zM2.398438 19.398438C2.398438 20.390625 3.207031 21.195312 4.199219 21.195312 5.191406 21.195312 5.996094 20.390625 5.996094 19.398438 5.996094 18.40625 5.191406 17.597656 4.199219 17.597656 3.207031 17.597656 2.398438 18.40625 2.398438 19.398438zM5.199219 19.398438C5.199219 19.949219 4.75 20.394531 4.199219 20.394531 3.648438 20.394531 3.199219 19.949219 3.199219 19.398438 3.199219 18.847656 3.648438 18.398438 4.199219 18.398438 4.75 18.398438 5.199219 18.84375 5.199219 19.398438zM5.199219 19.398438"/>
    <path d="M 0.800781 21.753906 L 0.800781 17.039062 C 0.800781 16.464844 1.265625 15.996094 1.84375 15.996094 L 15.195312 15.996094 L 15.195312 15.199219 L 1.84375 15.199219 C 1.265625 15.199219 0.800781 14.730469 0.800781 14.15625 L 0.800781 9.445312 C 0.800781 8.867188 1.265625 8.402344 1.84375 8.402344 L 22.148438 8.402344 C 22.722656 8.402344 23.191406 8.867188 23.191406 9.445312 L 23.191406 15.199219 L 23.992188 15.199219 L 23.992188 9.445312 C 23.992188 8.855469 23.710938 8.339844 23.28125 8 C 23.710938 7.664062 23.992188 7.144531 23.992188 6.558594 L 23.992188 1.847656 C 23.992188 0.832031 23.164062 0.00390625 22.148438 0.00390625 L 1.84375 0.00390625 C 0.828125 0.00390625 0 0.832031 0 1.847656 L 0 6.558594 C 0 7.144531 0.28125 7.664062 0.710938 8 C 0.28125 8.339844 0 8.855469 0 9.445312 L 0 14.15625 C 0 14.742188 0.28125 15.261719 0.710938 15.597656 C 0.28125 15.9375 0 16.453125 0 17.039062 L 0 21.753906 C 0 22.769531 0.828125 23.59375 1.84375 23.59375 L 11.195312 23.59375 L 11.195312 22.796875 L 1.84375 22.796875 C 1.265625 22.796875 0.800781 22.328125 0.800781 21.753906 Z M 0.800781 6.558594 L 0.800781 1.847656 C 0.800781 1.269531 1.265625 0.804688 1.84375 0.804688 L 22.148438 0.804688 C 22.722656 0.804688 23.191406 1.269531 23.191406 1.847656 L 23.191406 6.558594 C 23.191406 7.132812 22.722656 7.601562 22.148438 7.601562 L 1.84375 7.601562 C 1.265625 7.601562 0.800781 7.132812 0.800781 6.558594 Z M 0.800781 6.558594"/>
</svg>

<svg xmlns="http://www.w3.org/2000/svg" width="32" height="32" viewBox="0 0 24 24">
    <path d="M23.875 22.652l-4.734-8.12a.894.894 0 0 0-1.547 0l-4.735 8.12a.874.874 0 0 0-.004.895c.16.281.45.45.774.45h9.473a.882.882 0 0 0 .777-.45.874.874 0 0 0-.004-.895zm-.688.496a.095.095 0 0 1-.085.047h-9.473c-.043 0-.066-.023-.082-.047a.09.09 0 0 1 .004-.093l4.734-8.121a.092.092 0 0 1 .082-.047c.024 0 .059.008.082.047l4.738 8.12c.02.04.012.075 0 .094zm0 0"/>
    <path d="M18.402 16.8a.398.398 0 0 0-.402.4v3.198a.401.401 0 0 0 .8 0V17.2a.398.398 0 0 0-.398-.398zm0 0M18.117 21.71A.418.418 0 0 0 18 22c0 .105.047.207.117.281.078.074.18.117.285.117a.406.406 0 0 0 .282-.117A.414.414 0 0 0 18.8 22a.425.425 0 0 0-.117-.29.42.42 0 0 0-.567 0zm0 0M4.2 2.402c-.993 0-1.802.809-1.802 1.801A1.8 1.8 0 0 0 4.2 6c.992 0 1.797-.805 1.797-1.797a1.8 1.8 0 0 0-1.797-1.8zm0 2.801c-.552 0-1-.45-1-1s.448-1 1-1c.55 0 1 .45 1 1s-.45 1-1 1zm0 0M20.395 3.602a.401.401 0 1 1 0 0zm0 0M18.793 3.602a.401.401 0 1 1-.802.002.401.401 0 0 1 .802-.002zm0 0M21.191 4.8a.398.398 0 0 1-.797 0 .398.398 0 1 1 .797 0zm0 0M19.594 4.8a.401.401 0 1 1 0 0zm0 0M17.195 3.602a.401.401 0 1 1 0 0zm0 0M17.992 4.8a.398.398 0 1 1-.797 0 .398.398 0 1 1 .797 0zm0 0M15.594 3.602a.401.401 0 1 1-.802.002.401.401 0 0 1 .802-.002zm0 0M16.395 4.8a.401.401 0 1 1-.802.004.401.401 0 0 1 .802-.003zm0 0M13.996 3.602a.401.401 0 1 1 0 0zm0 0M14.793 4.8a.398.398 0 1 1-.797 0 .398.398 0 1 1 .797 0zm0 0M2.398 11.8A1.8 1.8 0 0 0 4.2 13.599c.992 0 1.797-.805 1.797-1.797A1.8 1.8 0 0 0 4.2 10c-.992 0-1.8.809-1.8 1.8zm2.801 0c0 .552-.449 1-1 1-.55 0-1-.448-1-1 0-.55.45-1 1-1 .551 0 1 .45 1 1zm0 0M20.395 11.2c0 .222-.18.398-.403.398a.398.398 0 1 1 0-.797c.223 0 .403.18.403.398zm0 0M18.793 11.2c0 .222-.18.398-.398.398a.398.398 0 1 1 0-.797.4.4 0 0 1 .398.398zm0 0M21.191 12.398a.398.398 0 0 1-.797 0 .398.398 0 1 1 .797 0zm0 0M19.594 12.398a.401.401 0 1 1 0 0zm0 0M17.195 11.2c0 .222-.18.398-.402.398a.398.398 0 1 1 0-.797c.223 0 .402.18.402.398zm0 0M17.992 12.398a.398.398 0 1 1-.797 0 .398.398 0 1 1 .797 0zm0 0M15.594 11.2c0 .222-.18.398-.399.398a.398.398 0 1 1 0-.797.4.4 0 0 1 .399.398zm0 0M16.395 12.398a.401.401 0 1 1-.802.003.401.401 0 0 1 .802-.003zm0 0M13.996 11.2c0 .222-.18.398-.402.398a.398.398 0 1 1 0-.797c.222 0 .402.18.402.398zm0 0M14.793 12.398a.398.398 0 1 1-.797 0 .398.398 0 1 1 .797 0zm0 0M2.398 19.398A1.8 1.8 0 0 0 4.2 21.195c.992 0 1.797-.804 1.797-1.797a1.8 1.8 0 0 0-1.797-1.8c-.992 0-1.8.808-1.8 1.8zm2.801 0c0 .551-.449.997-1 .997a.999.999 0 1 1 0-1.997 1 1 0 0 1 1 1zm0 0"/>
    <path d="M.8 21.754v-4.715c0-.574.466-1.043 1.044-1.043h13.351V15.2H1.844A1.043 1.043 0 0 1 .8 14.156v-4.71a1.04 1.04 0 0 1 1.043-1.044h20.304c.575 0 1.043.465 1.043 1.043V15.2h.801V9.445c0-.59-.281-1.105-.71-1.445.429-.336.71-.855.71-1.441V1.848A1.847 1.847 0 0 0 22.148.004H1.844A1.847 1.847 0 0 0 0 1.848v4.71C0 7.146.281 7.665.71 8 .282 8.34 0 8.855 0 9.445v4.711c0 .586.281 1.106.71 1.442-.429.34-.71.855-.71 1.441v4.715c0 1.016.828 1.84 1.844 1.84h9.351v-.797H1.844A1.043 1.043 0 0 1 .8 21.754zm0-15.195V1.848A1.04 1.04 0 0 1 1.845.805h20.304c.575 0 1.043.465 1.043 1.043v4.71c0 .575-.468 1.044-1.043 1.044H1.844A1.043 1.043 0 0 1 .8 6.559zm0 0"/>
</svg>
